src/asset/cabinet/transactions_icon.svg

<svg width="24" height="24" viewBox="0 0 24 24" fill="none" xmlns="http://www.w3.org/2000/svg">
<path fill-rule="evenodd" clip-rule="evenodd" d="M7.16049 16.3794C8.08418 17.6508 9.4312 18.5508 10.9593 18.9177C12.4873 19.2845 14.0961 19.0941 15.4963 18.3807C16.8965 17.6672 17.9962 16.4776 18.5976 15.0257C19.199 13.5739 19.2626 11.9551 18.777 10.4605C18.2914 8.96594 17.2884 7.69369 15.9485 6.87259C14.6086 6.0515 13.0197 5.73544 11.4675 5.98127C9.9154 6.22711 8.50191 7.0187 7.48132 8.21366C6.56942 9.28136 6.02465 10.6085 5.91896 12H9V13H4V8.00002H5V12H5.01668C5.02787 11.8325 5.04466 11.6657 5.06695 11.5C5.25836 10.0772 5.85547 8.7315 6.79695 7.62916C7.95672 6.27124 9.56295 5.37171 11.3267 5.09235C13.0905 4.813 14.8961 5.17215 16.4187 6.10521C17.9414 7.03828 19.0811 8.48402 19.6329 10.1824C20.1848 11.8808 20.1125 13.7203 19.4291 15.3701C18.7457 17.02 17.4961 18.3718 15.9049 19.1826C14.3138 19.9933 12.4856 20.2097 10.7492 19.7928C9.33954 19.4544 8.0655 18.7167 7.07432 17.6781C6.84483 17.4376 6.63049 17.181 6.43316 16.9095L6.43237 16.9084L7.16049 16.3794ZM13 7.99998H12V12.7071L15.3464 16.0535L16.0536 15.3464L13 12.2929V7.99998Z" fill="currentColor" fill-opacity="0.87"/>
</svg>

<svg width="24" height="24" fill="none" xmlns="http://www.w3.org/2000/svg"><path fill-rule="evenodd" clip-rule="evenodd" d="M7.16 16.38A6.6 6.6 0 105.92 12H9v1H4V8h1v4h.017a7.501 7.501 0 0111.402-5.895A7.5 7.5 0 116.433 16.91v-.002l.727-.529zM13 8h-1v4.707l3.346 3.346.708-.707L13 12.293V8z" fill="currentColor" fill-opacity=".87"/></svg>
